img/svg/add-doc-icon.svg

<svg width="48" height="48" viewBox="0 0 48 48" fill="none" xmlns="http://www.w3.org/2000/svg"><path fill-rule="evenodd" clip-rule="evenodd" d="M38 6h-8.36C28.8 3.68 26.6 2 24 2c-2.6 0-4.8 1.68-5.64 4H10c-2.2 0-4 1.8-4 4v32c0 2.2 1.8 4 4 4h28c2.2 0 4-1.8 4-4V10c0-2.2-1.8-4-4-4zM24 6c1.1 0 2 .9 2 2s-.9 2-2 2-2-.9-2-2 .9-2 2-2zm-14 4v32h28V10h-4v6H14v-6h-4z" fill="#000"/></svg>

<svg width="48" height="48" viewBox="0 0 48 48" fill="none" xmlns="http://www.w3.org/2000/svg">
<path fill-rule="evenodd" clip-rule="evenodd" d="M38 6H29.64C28.8 3.68 26.6 2 24 2C21.4 2 19.2 3.68 18.36 6H10C7.8 6 6 7.8 6 10V42C6 44.2 7.8 46 10 46H38C40.2 46 42 44.2 42 42V10C42 7.8 40.2 6 38 6ZM24 6C25.1 6 26 6.9 26 8C26 9.1 25.1 10 24 10C22.9 10 22 9.1 22 8C22 6.9 22.9 6 24 6ZM10 10V42H38V10H34V16H14V10H10Z" fill="black"/>
</svg>
